svgs/light/house-lock.svg

<svg xmlns="http://www.w3.org/2000/svg" viewBox="0 0 640 512"><!--! Font Awesome Pro 6.6.0 by @fontawesome - https://fontawesome.com License - https://fontawesome.com/license (Commercial License) Copyright 2024 Fonticons, Inc. --><path d="M298.6 4c-6-5.3-15.1-5.3-21.2 0L5.4 244c-6.6 5.8-7.3 16-1.4 22.6s16 7.3 22.6 1.4L64 235l0 197c0 44.2 35.8 80 80 80l248.6 0c-5.4-9.4-8.6-20.3-8.6-32l-16 0 0-160c0-17.7-14.3-32-32-32l-96 0c-17.7 0-32 14.3-32 32l0 160-64 0c-26.5 0-48-21.5-48-48l0-225.3L288 37.3 456.4 185.9c8.6-7.1 18.2-13 28.7-17.4L298.6 4zM336 480l-96 0 0-160 96 0 0 160zM528 224c26.5 0 48 21.5 48 48l0 48-96 0 0-48c0-26.5 21.5-48 48-48zm-80 48l0 48c-17.7 0-32 14.3-32 32l0 128c0 17.7 14.3 32 32 32l160 0c17.7 0 32-14.3 32-32l0-128c0-17.7-14.3-32-32-32l0-48c0-44.2-35.8-80-80-80s-80 35.8-80 80zm0 80l160 0 0 128-160 0 0-128z"/></svg>

<svg xmlns="http://www.w3.org/2000/svg" viewBox="0 0 640 512"><!--! Font Awesome Pro 6.4.0 by @fontawesome - https://fontawesome.com License - https://fontawesome.com/license (Commercial License) Copyright 2023 Fonticons, Inc. --><path d="M298.6 4c-6-5.3-15.1-5.3-21.2 0L5.4 244c-6.6 5.8-7.3 16-1.4 22.6s16 7.3 22.6 1.4L64 235V432c0 44.2 35.8 80 80 80H392.6c-5.4-9.4-8.6-20.3-8.6-32H368V320c0-17.7-14.3-32-32-32H240c-17.7 0-32 14.3-32 32V480H144c-26.5 0-48-21.5-48-48V206.7L288 37.3 456.4 185.9c8.6-7.1 18.2-13 28.7-17.4L298.6 4zM336 480H240V320h96V480zM528 224c26.5 0 48 21.5 48 48v48H480V272c0-26.5 21.5-48 48-48zm-80 48v48c-17.7 0-32 14.3-32 32V480c0 17.7 14.3 32 32 32H608c17.7 0 32-14.3 32-32V352c0-17.7-14.3-32-32-32V272c0-44.2-35.8-80-80-80s-80 35.8-80 80zm0 80H608V480H448V352z"/></svg>
